packages/kaspersky-hexa-ui-icons/src/iconsSVGs/24/ListSolid.svg

<svg width="24" height="24" viewBox="0 0 24 24" fill="none" xmlns="http://www.w3.org/2000/svg">
<path d="M2 4C2 3.17157 2.67157 2.5 3.5 2.5H20.5C21.3284 2.5 22 3.17157 22 4V6C22 6.82843 21.3284 7.5 20.5 7.5H3.5C2.67157 7.5 2 6.82843 2 6V4Z" fill="black"/>
<path d="M2 11C2 10.1716 2.67157 9.5 3.5 9.5H20.5C21.3284 9.5 22 10.1716 22 11V13C22 13.8284 21.3284 14.5 20.5 14.5H3.5C2.67157 14.5 2 13.8284 2 13V11Z" fill="black"/>
<path d="M3.5 16.5C2.67157 16.5 2 17.1716 2 18V20C2 20.8284 2.67157 21.5 3.5 21.5H20.5C21.3284 21.5 22 20.8284 22 20V18C22 17.1716 21.3284 16.5 20.5 16.5H3.5Z" fill="black"/>
</svg>

<svg xmlns="http://www.w3.org/2000/svg" width="24" height="24" fill="none" viewBox="0 0 24 24"><path fill="#000" fill-rule="evenodd" d="M2 4c0-.8284.6716-1.5 1.5-1.5h17c.8284 0 1.5.6716 1.5 1.5v2c0 .8284-.6716 1.5-1.5 1.5h-17C2.6716 7.5 2 6.8284 2 6zm0 7c0-.8284.6716-1.5 1.5-1.5h17c.8284 0 1.5.6716 1.5 1.5v2c0 .8284-.6716 1.5-1.5 1.5h-17c-.8284 0-1.5-.6716-1.5-1.5zm0 7c0-.8284.6716-1.5 1.5-1.5h17c.8284 0 1.5.6716 1.5 1.5v2c0 .8284-.6716 1.5-1.5 1.5h-17c-.8284 0-1.5-.6716-1.5-1.5z"/></svg>
